X: 1
T: SchleedÃ¶rfler LÃ¤ndler F
T:Hanny Christen. Bd.IX Uri II, Schwyz, Unterwalden I. S.380 (LD11114) orig. F-Dur
M:3/4
L:1/8
K:F 
FA ca |: "F"g2 fe f2 | z2 FA cg | "C7"f2 ed e2 | z2 EG Bg | f2 ed e2 |1 e2 dc d2 | "F"d2 cA F2 | 
z2 FA ca :|2 ed cB AG | "F"F2 AF Ac | f2 zf ed || "C7"c2 =Bc de | "F"fe fg a2 | "C7"g^f gb ag | 
"F"fa gf ed | "C7"c2 =Bc de | "F"fe fg a2 | "C7"g^f gb ag | "F"f2 zc =Bc |: "F"a2 ag fe | f2 fe dc | 
"C7"ce e2 d2 | B3f ed | ce e2d2 |1 B3e dc | "F"Bd d2c2 | A2 zc =Bc :|2 c2 a3g | "F"f3f f2 | f2 aa gf || 
|: "C7"eg df cf | dB Ac GB | "F"FA c2c2 | c2 zA GF | "C7"EG e2e2 |1 e2 B2 AG | 
"F"FA f2f2 | f2 aa gf :|2 e2B2 AG | "F"F3f f2 | f2 z2 cB |: "F"Ac Bd cf | eg fa gf | "C7"e2B2B2 | 
zG ^FG f2 | e2B2B2 |1 z2 G^F Ge | "F"f2A2A2 | z2 c3B :|2 z2 cb ag | "F"f3f f2 | f2 z2z2 ||  

